packages/sources/assets/src/assets/flag-je.svg

<svg width="28" height="20" viewBox="0 0 28 20" fill="none" xmlns="http://www.w3.org/2000/svg">
<rect x="0.25" y="0.25" width="27.5" height="19.5" rx="1.75" fill="white" stroke="#F5F5F5" stroke-width="0.5"/>
<mask id="mask0_503_3377" style="mask-type:alpha" maskUnits="userSpaceOnUse" x="0" y="0" width="28" height="20">
<rect x="0.25" y="0.25" width="27.5" height="19.5" rx="1.75" fill="white" stroke="white" stroke-width="0.5"/>
</mask>
<g mask="url(#mask0_503_3377)">
<rect x="-6.31146" y="-2.58281" width="2.66667" height="49.3333" transform="rotate(-55 -6.31146 -2.58281)" fill="#E3243B"/>
<rect width="2.66667" height="49.3333" transform="matrix(-0.573576 -0.819152 -0.819152 0.573576 35.6295 -2.58281)" fill="#E3243B"/>
<path fill-rule="evenodd" clip-rule="evenodd" d="M15.7408 2.66666H13.5926L13.6799 2.61546L12.6931 2.04562L13.9689 2.18808L13.7895 1.33333L14.6667 2.04562L15.5438 1.33333L15.3645 2.18808L16.6403 2.04562L15.6535 2.61546L15.7408 2.66666Z" fill="#FAEF32"/>
<path fill-rule="evenodd" clip-rule="evenodd" d="M12.6667 5.16666C12.6667 4.79585 12.6667 4.38227 12.6667 3.99993C12.6667 3.26355 13.2636 2.66666 14 2.66666H15.3334C16.0697 2.66666 16.6667 3.26355 16.6667 3.99993C16.6667 4.38227 16.6667 4.79585 16.6667 5.16666C16.6667 6.95237 14.6667 7.66666 14.6667 7.66666C14.6667 7.66666 12.6667 6.95237 12.6667 5.16666Z" fill="#E3243B"/>
<mask id="mask1_503_3377" style="mask-type:alpha" maskUnits="userSpaceOnUse" x="12" y="2" width="5" height="6">
<path fill-rule="evenodd" clip-rule="evenodd" d="M12.6667 5.16666C12.6667 4.79585 12.6667 4.38227 12.6667 3.99993C12.6667 3.26355 13.2636 2.66666 14 2.66666H15.3334C16.0697 2.66666 16.6667 3.26355 16.6667 3.99993C16.6667 4.38227 16.6667 4.79585 16.6667 5.16666C16.6667 6.95237 14.6667 7.66666 14.6667 7.66666C14.6667 7.66666 12.6667 6.95237 12.6667 5.16666Z" fill="white"/>
</mask>
<g mask="url(#mask1_503_3377)">
<rect x="14.3334" y="6.66666" width="0.666667" height="0.666667" rx="0.333333" fill="#FAEF32"/>
<rect x="13.3334" y="5.33333" width="2.66667" height="0.666667" rx="0.333333" fill="#FAEF32"/>
<rect x="13.3334" y="4" width="2.66667" height="0.666667" rx="0.333333" fill="#FAEF32"/>
</g>
</g>
</svg>

<svg width="28" height="20" fill="none" xmlns="http://www.w3.org/2000/svg"><rect x=".25" y=".25" width="27.5" height="19.5" rx="1.75" fill="#fff" stroke="#F5F5F5" stroke-width=".5"/><mask id="a" style="mask-type:alpha" maskUnits="userSpaceOnUse" x="0" y="0" width="28" height="20"><rect x=".25" y=".25" width="27.5" height="19.5" rx="1.75" fill="#fff" stroke="#fff" stroke-width=".5"/></mask><g mask="url(#a)"><path fill="#E3243B" d="m-6.311-2.583 1.53-2.185 40.41 28.296-1.53 2.185z"/><path fill="#E3243B" d="M35.63-2.583 34.1-4.767-6.311 23.529l1.53 2.184z"/><path fill-rule="evenodd" clip-rule="evenodd" d="M15.74 2.667h-2.147l.087-.052-.987-.57 1.276.143-.18-.855.878.713.877-.713-.18.855 1.276-.142-.987.57.088.05Z" fill="#FAEF32"/><path fill-rule="evenodd" clip-rule="evenodd" d="M12.667 5.167V4c0-.736.597-1.333 1.333-1.333h1.333c.737 0 1.334.597 1.334 1.333v1.167c0 1.785-2 2.5-2 2.5s-2-.715-2-2.5Z" fill="#E3243B"/><mask id="b" style="mask-type:alpha" maskUnits="userSpaceOnUse" x="12" y="2" width="5" height="6"><path fill-rule="evenodd" clip-rule="evenodd" d="M12.667 5.167V4c0-.736.597-1.333 1.333-1.333h1.333c.737 0 1.334.597 1.334 1.333v1.167c0 1.785-2 2.5-2 2.5s-2-.715-2-2.5Z" fill="#fff"/></mask><g mask="url(#b)" fill="#FAEF32"><rect x="14.333" y="6.667" width=".667" height=".667" rx=".333"/><rect x="13.333" y="5.333" width="2.667" height=".667" rx=".333"/><rect x="13.333" y="4" width="2.667" height=".667" rx=".333"/></g></g></svg>
